raw/symbols/busd.svg

<svg width="42" height="42" viewBox="0 0 42 42" fill="none" xmlns="http://www.w3.org/2000/svg">
<g clip-path="url(#clip0_1915_201538)">
<circle cx="21" cy="21" r="21" fill="#F0B90B"/>
<path d="M21.0003 4.66797L25.0472 8.81233L14.8569 19.0026L10.8101 14.9557L21.0003 4.66797Z" fill="#F3F3F3" stroke="#F3F3F3" stroke-width="0.0975145"/>
<path d="M27.1437 10.8242L31.1906 14.9686L14.8569 31.3023L10.8101 27.2554L27.1437 10.8242Z" fill="#F3F3F3" stroke="#F3F3F3" stroke-width="0.0975145"/>
<path d="M8.71384 16.9492L12.7607 21.0936L8.71384 25.1404L4.66699 21.0936L8.71384 16.9492Z" fill="#F3F3F3" stroke="#F3F3F3" stroke-width="0.0975145"/>
<path d="M33.2868 16.9492L37.3336 21.0936L21 37.4273L16.9531 33.3804L33.2868 16.9492Z" fill="#F3F3F3" stroke="#F3F3F3" stroke-width="0.0975145"/>
</g>
<defs>
<clipPath id="clip0_1915_201538">
<rect width="42" height="42" fill="white"/>
</clipPath>
</defs>
</svg>

<svg xmlns="http://www.w3.org/2000/svg" width="42" height="42" fill="none"><g clip-path="url(#a)"><circle cx="21" cy="21" r="21" fill="#F0B90B"/><path fill="#F3F3F3" stroke="#F3F3F3" stroke-width=".098" d="m21 4.668 4.047 4.144-10.19 10.19-4.047-4.046L21 4.668ZM27.144 10.824l4.047 4.145-16.334 16.333-4.047-4.047 16.334-16.43ZM8.714 16.95l4.047 4.144-4.047 4.046-4.047-4.046 4.047-4.145ZM33.287 16.95l4.047 4.144L21 37.427l-4.047-4.047 16.334-16.43Z"/></g><defs><clipPath id="a"><path fill="#fff" d="M0 0h42v42H0z"/></clipPath></defs></svg>
